StripePaymentsUI/StripePaymentsUI/Resources/StripePaymentsUI.xcassets/Cards/stp_card_amex.imageset/icon-card-amex.svg

<svg fill="none" height="17" viewBox="0 0 26 17" width="26" xmlns="http://www.w3.org/2000/svg"><path d="m22 1h-20c-1.10457 0-2 .89543-2 2v12c0 1.1046.89543 2 2 2h20c1.1046 0 2-.8954 2-2v-12c0-1.10457-.8954-2-2-2z" fill="#016fd0"/><g clip-rule="evenodd" fill-rule="evenodd"><path d="m13.764 14.3939v-5.7014l10.1476.00911v1.57489l-1.1729 1.2534 1.1729 1.2649v1.6083h-1.8726l-.9952-1.0982-.9881 1.1023z" fill="#fffffe"/><path d="m14.4418 13.7688v-4.44885h3.7723v1.02485h-2.5509v.6957h2.4901v1.0078h-2.4901v.6834h2.5509v1.0371z" fill="#016fd0"/><path d="m18.1953 13.7688 2.0873-2.227-2.0874-2.22179h1.6156l1.2755 1.40999 1.2791-1.40999h1.5462v.035l-2.0429 2.18679 2.0429 2.1639v.0631h-1.5617l-1.2981-1.4242-1.2848 1.4242z" fill="#016fd0"/><path d="m14.2374 3.63196h2.446l.8592 1.95085v-1.95085h3.0198l.5208 1.46157.5225-1.46157h2.3059v5.70139h-12.1865z" fill="#fffffe"/><path d="m14.7005 4.25134-1.9741 4.44517h1.3539l.3725-.89016h2.0179l.3722.89016h1.3875l-1.9657-4.44517zm.1696 2.55744.592-1.41507.5915 1.41507z" fill="#016fd0"/><path d="m18.212 8.69569v-4.44508l1.9031.00654.9793 2.73273.9856-2.73927h1.8316v4.44508l-1.1786.01043v-3.05334l-1.1126 3.04291h-1.0758l-1.1356-3.05334v3.05334z" fill="#016fd0"/></g></svg>

<svg width="26" height="17" viewBox="0 0 26 17" fill="none" xmlns="http://www.w3.org/2000/svg">
<path d="M22 1H2C0.89543 1 0 1.89543 0 3V15C0 16.1046 0.89543 17 2 17H22C23.1046 17 24 16.1046 24 15V3C24 1.89543 23.1046 1 22 1Z" fill="#016FD0"/>
<path fill-rule="evenodd" clip-rule="evenodd" d="M13.764 14.3939V8.6925L23.9116 8.70161V10.2765L22.7387 11.5299L23.9116 12.7948V14.4031H22.039L21.0438 13.3049L20.0557 14.4072L13.764 14.3939Z" fill="#FFFFFE"/>
<path fill-rule="evenodd" clip-rule="evenodd" d="M14.4418 13.7688V9.31995H18.2141V10.3448H15.6632V11.0405H18.1533V12.0483H15.6632V12.7317H18.2141V13.7688H14.4418Z" fill="#016FD0"/>
<path fill-rule="evenodd" clip-rule="evenodd" d="M18.1953 13.7688L20.2826 11.5418L18.1952 9.32001H19.8108L21.0863 10.73L22.3654 9.32001H23.9116V9.35501L21.8687 11.5418L23.9116 13.7057V13.7688H22.3499L21.0518 12.3446L19.767 13.7688H18.1953Z" fill="#016FD0"/>
<path fill-rule="evenodd" clip-rule="evenodd" d="M14.2374 3.63196H16.6834L17.5426 5.58281V3.63196H20.5624L21.0832 5.09353L21.6057 3.63196H23.9116V9.33335H11.7251L14.2374 3.63196Z" fill="#FFFFFE"/>
<path fill-rule="evenodd" clip-rule="evenodd" d="M14.7005 4.25134L12.7264 8.69651H14.0803L14.4528 7.80635H16.4707L16.8429 8.69651H18.2304L16.2647 4.25134H14.7005ZM14.8701 6.80878L15.4621 5.39371L16.0536 6.80878H14.8701Z" fill="#016FD0"/>
<path fill-rule="evenodd" clip-rule="evenodd" d="M18.212 8.69569V4.25061L20.1151 4.25715L21.0944 6.98988L22.08 4.25061H23.9116V8.69569L22.733 8.70612V5.65278L21.6204 8.69569H20.5446L19.409 5.64235V8.69569H18.212Z" fill="#016FD0"/>
</svg>
